svg/stop.svg

<svg xmlns="http://www.w3.org/2000/svg" viewBox="0 0 64 64" enable-background="new 0 0 64 64"><style type="text/css">.st0{fill:#343434;}</style><title>stop</title><desc>Created with Sketch.</desc><path class="st0" d="M60 0h-56c-2.2 0-4 1.8-4 4v56c0 2.2 1.8 4 4 4h56c2.2 0 4-1.8 4-4v-56c0-2.2-1.8-4-4-4zm-2 58h-52v-52h52v52z"/></svg>

<?xml version="1.0" encoding="utf-8"?>
<!-- Generator: Adobe Illustrator 21.0.0, SVG Export Plug-In . SVG Version: 6.00 Build 0)  -->
<svg version="1.1" id="Layer_1" xmlns="http://www.w3.org/2000/svg" xmlns:xlink="http://www.w3.org/1999/xlink" x="0px" y="0px"
	 viewBox="0 0 64 64" style="enable-background:new 0 0 64 64;" xml:space="preserve">
<style type="text/css">
	.st0{fill:#343434;}
</style>
<title>stop</title>
<desc>Created with Sketch.</desc>
<path class="st0" d="M60,0H4C1.8,0,0,1.8,0,4v56c0,2.2,1.8,4,4,4h56c2.2,0,4-1.8,4-4V4C64,1.8,62.2,0,60,0z M58,58H6V6h52V58z"/>
</svg>
